icons/svg/power-socket.svg

<svg xmlns="http://www.w3.org/2000/svg" version="1.1" baseProfile="full" width="24" height="24" viewBox="0 0 24.00 24.00" xml:space="preserve"><path fill="#000" fill-opacity="1" stroke-width=".2" stroke-linejoin="round" d="M15 15h2v-4h-2m-8 4h2v-4H7m4 2h2V9h-2M8.83 7h6.37l3.8 3.8V17H5v-6.2M8 5l-5 5v9h18v-9l-5-5H8z"/></svg>

﻿<?xml version="1.0" encoding="utf-8"?>
<!DOCTYPE svg PUBLIC "-//W3C//DTD SVG 1.1//EN" "http://www.w3.org/Graphics/SVG/1.1/DTD/svg11.dtd">
<svg xmlns="http://www.w3.org/2000/svg" xmlns:xlink="http://www.w3.org/1999/xlink" version="1.1" baseProfile="full" width="24" height="24" viewBox="0 0 24.00 24.00" enable-background="new 0 0 24.00 24.00" xml:space="preserve">
	<path fill="#000000" fill-opacity="1" stroke-width="0.2" stroke-linejoin="round" d="M 15,15L 17,15L 17,11L 15,11M 7,15L 9,15L 9,11L 7,11M 11,13L 13,13L 13,9L 11,9M 8.83,7L 15.2,7L 19,10.8L 19,17L 5,17L 5,10.8M 8,5L 3,10L 3,19L 21,19L 21,10L 16,5L 8,5 Z "/>
</svg>
